static/app-icons/light-theme/038.svg

<svg xmlns="http://www.w3.org/2000/svg" viewBox="0 0 32 32"><defs><linearGradient id="linear-gradient" x1="74.5" y1="-24" x2="85.5" y2="-24" gradientTransform="translate(-66.5 49.5)" gradientUnits="userSpaceOnUse"><stop offset=".001" stop-opacity="0"/><stop offset=".83"/></linearGradient><linearGradient id="linear-gradient-2" y1="32" x2="32" gradientUnits="userSpaceOnUse"><stop offset=".1" stop-color="#ee5396"/><stop offset=".9" stop-color="#8a3ffc"/></linearGradient><style>.cls-5{fill:#001d6c}</style><mask id="mask" x="0" y="0" width="32" height="32" maskUnits="userSpaceOnUse"><path d="M26 4a2 2 0 00-2-2H8a2 2 0 00-2 2v22a2 2 0 002 2h10v-2H8v-6h18zM8 4h16v6H8zm0 14v-6h16v6z" fill="#fff"/><path fill="url(#linear-gradient)" d="M8 22h11v7H8z" id="Gradients_black_" data-name="Gradients (black)"/></mask></defs><g id="Layer_2" data-name="Layer 2"><g id="Light_theme_icons" data-name="Light theme icons"><g mask="url(#mask)"><path id="Color" fill="url(#linear-gradient-2)" d="M0 0h32v32H0z"/></g><path class="cls-5" d="M24 26h2v4h-2zM20 24h2v6h-2zM28 21h2v9h-2z"/><circle class="cls-5" cx="11" cy="23" r="1"/><circle class="cls-5" cx="11" cy="15" r="1"/><circle class="cls-5" cx="11" cy="7" r="1"/></g></g></svg>

<svg xmlns="http://www.w3.org/2000/svg" xmlns:xlink="http://www.w3.org/1999/xlink" viewBox="0 0 32 32"><defs><style>.cls-1{fill:#fff;}.cls-2{fill:url(#linear-gradient);}.cls-3{mask:url(#mask);}.cls-4{fill:url(#linear-gradient-2);}.cls-5{fill:#001d6c;}</style><linearGradient id="linear-gradient" x1="74.5" y1="-24" x2="85.5" y2="-24" gradientTransform="translate(-66.5 49.5)" gradientUnits="userSpaceOnUse"><stop offset="0.001" stop-opacity="0"/><stop offset="0.83"/></linearGradient><mask id="mask" x="0" y="0" width="32" height="32" maskUnits="userSpaceOnUse"><path class="cls-1" d="M26,4a2,2,0,0,0-2-2H8A2,2,0,0,0,6,4V26a2,2,0,0,0,2,2H18V26H8V20H26ZM8,4H24v6H8ZM8,18V12H24v6Z"/><g id="Gradients_black_" data-name="Gradients (black)"><rect class="cls-2" x="8" y="22" width="11" height="7"/></g></mask><linearGradient id="linear-gradient-2" y1="32" x2="32" gradientUnits="userSpaceOnUse"><stop offset="0.1" stop-color="#ee5396"/><stop offset="0.9" stop-color="#8a3ffc"/></linearGradient></defs><g id="Layer_2" data-name="Layer 2"><g id="Light_theme_icons" data-name="Light theme icons"><g class="cls-3"><rect id="Color" class="cls-4" width="32" height="32"/></g><rect class="cls-5" x="24" y="26" width="2" height="4"/><rect class="cls-5" x="20" y="24" width="2" height="6"/><rect class="cls-5" x="28" y="21" width="2" height="9"/><circle class="cls-5" cx="11" cy="23" r="1"/><circle class="cls-5" cx="11" cy="15" r="1"/><circle class="cls-5" cx="11" cy="7" r="1"/></g></g></svg>
